X:1
T:Protection, 11.11.11.11
T:Protection, 11.11.11.11
T:Joseph Funk, 1832
T:Public Domain Courtesy of the Cyber Hymnal™
C:Joseph Funk, 1832
Z:Public Domain
Z:Courtesy of the Cyber Hymnal™
%%score ( 1 2 ) ( 3 4 )
L:1/8
M:4/4
K:Ab
V:1 treble 
V:2 treble 
V:3 bass 
V:4 bass 
V:1
 [CE]2 | [CA]4 [DF]2 [DA]2 | [CE]4 [=DA]2 [DB]2 | [Ec]4 [EB]2 [Ec]2 | E6 E2 | [EA]4 [DF]2 [DA]2 | %6
 [CE]4 [=DA]2 [DB]2 | [Ec]4 [EB]2 [DB]2 | [CA]6 [Ec]2 | [Ee]4 [Ec]2 [Ee]2 | [FA]4 [FA]2 [FA]2 | %11
 [Ec]4 [EB]2 [Ec]2 | E6 E2 | [EA]4 [DF]2 [DA]2 | [CE]4 [=DA]2 [DB]2 | [Ec]4 [EB]2 [DB]2 | [CA]6 |] %17
V:2
 x2 | x8 | x8 | x8 | E6 E2 | x8 | x8 | x8 | x8 | x8 | x8 | x8 | E6 E2 | x8 | x8 | x8 | x6 |] %17
V:3
 [A,,A,]2 | [A,,A,]4 [D,A,]2 [F,A,]2 | A,4 [F,A,]2 [F,A,]2 | [E,A,]4 [E,G,]2 [C,G,]2 | %4
 [E,G,]6 G,2 | [C,A,]4 [D,A,]2 [F,A,]2 | A,4 [F,A,]2 [F,A,]2 | [E,A,]4 [E,G,]2 [E,G,]2 | %8
 [A,,A,]6 A,2 | [A,C]4 A,2 [G,B,]2 | [F,C]4 [D,D]2 [D,A,]2 | [A,,A,]4 [E,G,]2 [C,A,]2 | %12
 [E,G,]6 [D,B,]2 | [C,A,]4 [D,A,]2 [F,A,]2 | A,4 [F,A,]2 [F,A,]2 | [E,A,]4 [E,G,]2 [E,G,]2 | %16
 [A,,A,]6 |] %17
V:4
 x2 | x8 | A,4 x4 | x8 | x6 (E,D,) | x8 | A,4 x4 | x8 | x6 A,2 | x4 A,2 x2 | x8 | x8 | x8 | x8 | %14
 A,4 x4 | x8 | x6 |] %17

